X: 28571
T: Murphy's
R: hornpipe
M: 4/4
K: Dmajor
ABc|:d2AF dAFA|dcdf ecAg|f/f/f df gfed|c/e/c A2 AB c/B/A|
ddAF dAFA|dcdf ecAg|fa a/a/a bgec|1 cddc dABc:|2 cddc defg||
afdg faga|bged ceag|fa a/a/a bged|c/e/c A2 Aefg|
afdg faga|bged cdag|fa a/a/a bgec|cddc defg|
afdg faga|bged ceag|fa a/a/a gfed|c/e/c A2 A2Bc|
dAFA dAFA|dcdf ecAg|fa a/a/a bgec|cddc d2 AG||
|:F/F/F Dg fdec|dcdf ecAG|F/F/F Dg fdec|dfec dBAG|
F/F/F Dg fdec|dcdf ecAg|fa a/a/a bgec|1 cddc dBAG:|2 cddc dfag||
f2 fa g3e|fedf ecAg|ffdf gfed|c/e/c A2 ABAG|
FDAD BDAD|dcdf ecAg|faa/a/a bgec|cddc dfag|
f2 fa g3e|fedf ecAg|ffdf gfed|c/e/c B/c/B A2 A/B/c
dAdf e2eg|fdfa g3f|gbaf gfec|dAfe dABc||

